img/brand_apple.svg

<svg width="50" height="50" viewBox="0 0 50 50" fill="none" xmlns="http://www.w3.org/2000/svg">
<g clip-path="url(#clip0_1_8)">
<path d="M34.9437 0.0250219C34.8375 -0.0937281 31.0093 0.071897 27.6781 3.68752C24.3468 7.30002 24.8593 11.4438 24.9343 11.55C25.0093 11.6563 29.6843 11.8219 32.6687 7.61877C35.6531 3.41565 35.05 0.146897 34.9437 0.0250219ZM45.2999 36.6906C45.15 36.3906 38.0343 32.8344 38.6968 25.9969C39.3593 19.1563 43.9312 17.2813 44.0031 17.0781C44.075 16.875 42.1375 14.6094 40.0843 13.4625C38.5769 12.6539 36.9085 12.1907 35.2 12.1063C34.8624 12.0969 33.6906 11.8094 31.2812 12.4688C29.6937 12.9031 26.1156 14.3094 25.1312 14.3656C24.1437 14.4219 21.2062 12.7344 18.0468 12.2875C16.025 11.8969 13.8812 12.6969 12.3468 13.3125C10.8156 13.925 7.90308 15.6688 5.86558 20.3031C3.82808 24.9344 4.8937 32.2719 5.6562 34.5531C6.4187 36.8313 7.60933 40.5656 9.63433 43.2906C11.4343 46.3656 13.8218 48.5 14.8187 49.225C15.8156 49.95 18.6281 50.4313 20.5781 49.4344C22.1468 48.4719 24.9781 47.9188 26.0968 47.9594C27.2125 48 29.4125 48.4406 31.6656 49.6438C33.45 50.2594 35.1374 50.0031 36.8281 49.3156C38.5187 48.625 40.9656 46.0063 43.8218 40.6969C44.9062 38.2281 45.4 36.8938 45.2999 36.6906Z" fill="white"/>
<path d="M34.9437 0.0250219C34.8375 -0.0937281 31.0093 0.071897 27.6781 3.68752C24.3468 7.30002 24.8593 11.4438 24.9343 11.55C25.0093 11.6563 29.6843 11.8219 32.6687 7.61877C35.6531 3.41565 35.05 0.146897 34.9437 0.0250219ZM45.2999 36.6906C45.15 36.3906 38.0343 32.8344 38.6968 25.9969C39.3593 19.1563 43.9312 17.2813 44.0031 17.0781C44.075 16.875 42.1375 14.6094 40.0843 13.4625C38.5769 12.6539 36.9085 12.1907 35.2 12.1063C34.8624 12.0969 33.6906 11.8094 31.2812 12.4688C29.6937 12.9031 26.1156 14.3094 25.1312 14.3656C24.1437 14.4219 21.2062 12.7344 18.0468 12.2875C16.025 11.8969 13.8812 12.6969 12.3468 13.3125C10.8156 13.925 7.90308 15.6688 5.86558 20.3031C3.82808 24.9344 4.8937 32.2719 5.6562 34.5531C6.4187 36.8313 7.60933 40.5656 9.63433 43.2906C11.4343 46.3656 13.8218 48.5 14.8187 49.225C15.8156 49.95 18.6281 50.4313 20.5781 49.4344C22.1468 48.4719 24.9781 47.9188 26.0968 47.9594C27.2125 48 29.4125 48.4406 31.6656 49.6438C33.45 50.2594 35.1374 50.0031 36.8281 49.3156C38.5187 48.625 40.9656 46.0063 43.8218 40.6969C44.9062 38.2281 45.4 36.8938 45.2999 36.6906Z" fill="white"/>
</g>
<defs>
<clipPath id="clip0_1_8">
<rect width="50" height="50" fill="white"/>
</clipPath>
</defs>
</svg>

<svg xmlns="http://www.w3.org/2000/svg" width="50" height="50" fill="none"><g fill="#fff" clip-path="url(#a)"><path d="M34.944.025c-.107-.119-3.935.047-7.266 3.663-3.331 3.612-2.819 7.756-2.744 7.862.075.106 4.75.272 7.735-3.931C35.653 3.416 35.05.147 34.944.025ZM45.3 36.691c-.15-.3-7.266-3.857-6.603-10.694.662-6.84 5.234-8.716 5.306-8.919.072-.203-1.865-2.469-3.919-3.615a11.537 11.537 0 0 0-4.884-1.357c-.338-.01-1.51-.297-3.919.363-1.587.434-5.165 1.84-6.15 1.897-.987.056-3.925-1.632-7.084-2.079-2.022-.39-4.166.41-5.7 1.025-1.531.613-4.444 2.357-6.481 6.991-2.038 4.631-.972 11.969-.21 14.25.763 2.278 1.953 6.013 3.978 8.738 1.8 3.075 4.188 5.209 5.185 5.934.997.725 3.81 1.206 5.76.21 1.568-.963 4.4-1.516 5.518-1.476 1.115.041 3.316.482 5.569 1.685 1.784.615 3.471.36 5.162-.328 1.69-.691 4.138-3.31 6.994-8.62 1.084-2.468 1.578-3.802 1.478-4.005Z"/><path d="M34.944.025c-.107-.119-3.935.047-7.266 3.663-3.331 3.612-2.819 7.756-2.744 7.862.075.106 4.75.272 7.735-3.931C35.653 3.416 35.05.147 34.944.025ZM45.3 36.691c-.15-.3-7.266-3.857-6.603-10.694.662-6.84 5.234-8.716 5.306-8.919.072-.203-1.865-2.469-3.919-3.615a11.537 11.537 0 0 0-4.884-1.357c-.338-.01-1.51-.297-3.919.363-1.587.434-5.165 1.84-6.15 1.897-.987.056-3.925-1.632-7.084-2.079-2.022-.39-4.166.41-5.7 1.025-1.531.613-4.444 2.357-6.481 6.991-2.038 4.631-.972 11.969-.21 14.25.763 2.278 1.953 6.013 3.978 8.738 1.8 3.075 4.188 5.209 5.185 5.934.997.725 3.81 1.206 5.76.21 1.568-.963 4.4-1.516 5.518-1.476 1.115.041 3.316.482 5.569 1.685 1.784.615 3.471.36 5.162-.328 1.69-.691 4.138-3.31 6.994-8.62 1.084-2.468 1.578-3.802 1.478-4.005Z"/></g><defs><clipPath id="a"><path fill="#fff" d="M0 0h50v50H0z"/></clipPath></defs></svg>
